svgs/instagram.svg

<svg width="49" height="49" viewBox="0 0 49 49" fill="none" xmlns="http://www.w3.org/2000/svg">
<g clip-path="url(#clip0_278_631)">
<path d="M33.8675 0.187988H14.4665C6.5817 0.187988 0.166992 6.60269 0.166992 14.4874V33.8885C0.166992 41.7733 6.5817 48.188 14.4665 48.188H33.8675C41.7523 48.188 48.167 41.7733 48.167 33.8885V14.4874C48.1669 6.60269 41.7522 0.187988 33.8675 0.187988ZM43.3382 33.8885C43.3382 39.119 39.098 43.3592 33.8675 43.3592H14.4665C9.23599 43.3592 4.99579 39.119 4.99579 33.8885V14.4874C4.99579 9.2569 9.23599 5.01679 14.4665 5.01679H33.8675C39.098 5.01679 43.3382 9.2569 43.3382 14.4874V33.8885Z" fill="url(#paint0_linear_278_631)"/>
<path d="M24.1669 11.7734C17.3216 11.7734 11.7524 17.3426 11.7524 24.1879C11.7524 31.0331 17.3216 36.6024 24.1669 36.6024C31.0123 36.6024 36.5815 31.0332 36.5815 24.1879C36.5815 17.3425 31.0123 11.7734 24.1669 11.7734ZM24.1669 31.7737C19.9774 31.7737 16.5812 28.3775 16.5812 24.1879C16.5812 19.9984 19.9775 16.6022 24.1669 16.6022C28.3565 16.6022 31.7527 19.9984 31.7527 24.1879C31.7527 28.3774 28.3564 31.7737 24.1669 31.7737Z" fill="url(#paint1_linear_278_631)"/>
<path d="M36.6055 14.8416C38.2484 14.8416 39.5803 13.5098 39.5803 11.8669C39.5803 10.2239 38.2484 8.89209 36.6055 8.89209C34.9626 8.89209 33.6307 10.2239 33.6307 11.8669C33.6307 13.5098 34.9626 14.8416 36.6055 14.8416Z" fill="url(#paint2_linear_278_631)"/>
</g>
<defs>
<linearGradient id="paint0_linear_278_631" x1="24.167" y1="48.0483" x2="24.167" y2="0.560812" gradientUnits="userSpaceOnUse">
<stop stop-color="#E09B3D"/>
<stop offset="0.3" stop-color="#C74C4D"/>
<stop offset="0.6" stop-color="#C21975"/>
<stop offset="1" stop-color="#7024C4"/>
</linearGradient>
<linearGradient id="paint1_linear_278_631" x1="24.1669" y1="48.0482" x2="24.1669" y2="0.560772" gradientUnits="userSpaceOnUse">
<stop stop-color="#E09B3D"/>
<stop offset="0.3" stop-color="#C74C4D"/>
<stop offset="0.6" stop-color="#C21975"/>
<stop offset="1" stop-color="#7024C4"/>
</linearGradient>
<linearGradient id="paint2_linear_278_631" x1="36.6055" y1="48.0484" x2="36.6055" y2="0.56099" gradientUnits="userSpaceOnUse">
<stop stop-color="#E09B3D"/>
<stop offset="0.3" stop-color="#C74C4D"/>
<stop offset="0.6" stop-color="#C21975"/>
<stop offset="1" stop-color="#7024C4"/>
</linearGradient>
<clipPath id="clip0_278_631">
<rect width="48" height="48" fill="white" transform="translate(0.166992 0.187988)"/>
</clipPath>
</defs>
</svg>

<svg xmlns="http://www.w3.org/2000/svg" width="49" height="49" fill="none"><g clip-path="url(#a)"><path fill="url(#b)" d="M33.868.188H14.465C6.583.188.168 6.603.168 14.488v19.4c0 7.885 6.415 14.3 14.3 14.3h19.4c7.885 0 14.3-6.415 14.3-14.3v-19.4c0-7.885-6.415-14.3-14.3-14.3m9.47 33.7a9.47 9.47 0 0 1-9.47 9.471H14.465a9.47 9.47 0 0 1-9.47-9.47V14.487a9.47 9.47 0 0 1 9.47-9.47h19.402a9.47 9.47 0 0 1 9.47 9.47z"/><path fill="url(#c)" d="M24.167 11.773c-6.845 0-12.415 5.57-12.415 12.415s5.57 12.414 12.415 12.414S36.58 31.033 36.58 24.188s-5.569-12.415-12.414-12.415m0 20a7.586 7.586 0 1 1 0-15.17 7.586 7.586 0 0 1 0 15.17"/><path fill="url(#d)" d="M36.606 14.842a2.975 2.975 0 1 0 0-5.95 2.975 2.975 0 0 0 0 5.95"/></g><defs><linearGradient id="b" x1="24.167" x2="24.167" y1="48.048" y2=".561" gradientUnits="userSpaceOnUse"><stop stop-color="#E09B3D"/><stop offset=".3" stop-color="#C74C4D"/><stop offset=".6" stop-color="#C21975"/><stop offset="1" stop-color="#7024C4"/></linearGradient><linearGradient id="c" x1="24.167" x2="24.167" y1="48.048" y2=".561" gradientUnits="userSpaceOnUse"><stop stop-color="#E09B3D"/><stop offset=".3" stop-color="#C74C4D"/><stop offset=".6" stop-color="#C21975"/><stop offset="1" stop-color="#7024C4"/></linearGradient><linearGradient id="d" x1="36.605" x2="36.605" y1="48.048" y2=".561" gradientUnits="userSpaceOnUse"><stop stop-color="#E09B3D"/><stop offset=".3" stop-color="#C74C4D"/><stop offset=".6" stop-color="#C21975"/><stop offset="1" stop-color="#7024C4"/></linearGradient><clipPath id="a"><path fill="#fff" d="M.167.188h48v48h-48z"/></clipPath></defs></svg>
